Origami/48x48/apps/green-recorder.svg

<svg width="48" height="48" version="1" xmlns="http://www.w3.org/2000/svg">
 <rect transform="matrix(0,-1,-1,0,0,0)" x="-42" y="-36" width="32" height="24" rx="2" ry="2" fill="#8e8e8e"/>
 <rect transform="matrix(0,-1,-1,0,0,0)" x="-38" y="-44" width="32" height="40" rx="2" ry="2" style="fill:#4f4f4f"/>
 <rect transform="matrix(0,-1,-1,0,0,0)" x="-35" y="-41" width="26" height="34" rx="0" ry="0" style="fill:#37b368"/>
 <path d="m6 6c-1.108 0-2 0.892-2 2v1c0-1.108 0.892-2 2-2h36c1.108 0 2 0.892 2 2v-1c0-1.108-0.892-2-2-2h-36z" fill="#fff" style="opacity:.1"/>
 <path d="m12 40v1c0 1.108 0.892 2 2 2h20c1.108 0 2-0.892 2-2v-1c0 1.108-0.892 2-2 2h-20c-1.108 0-2-0.892-2-2z" opacity=".2"/>
 <path d="m4 36v1c0 1.108 0.892 2 2 2h36c1.108 0 2-0.892 2-2v-1c0 1.108-0.892 2-2 2h-36c-1.108 0-2-0.892-2-2z" opacity=".2"/>
 <path d="m14.997 16h13c1 0 1 1 1 1v12c0 1-1 1-1 1h-12.997s-1 0-1-1v-12s0-1 1-1zm20.003 2v10l-6.006-5z" style="opacity:.2"/>
 <path d="m14.997 15h13c1 0 1 1 1 1v12c0 1-1 1-1 1h-12.997s-1 0-1-1v-12s0-1 1-1zm20.003 2v10l-6.006-5z" style="fill:#ffffff"/>
</svg>

<svg xmlns="http://www.w3.org/2000/svg" width="48" height="48" version="1">
 <rect fill="#8e8e8e" width="32" height="24" x="-42" y="-36" rx="2" ry="2" transform="matrix(0,-1,-1,0,0,0)"/>
 <rect style="fill:#4f4f4f" width="32" height="40" x="-38" y="-44" rx="2" ry="2" transform="matrix(0,-1,-1,0,0,0)"/>
 <rect style="fill:#37b368" width="26" height="34" x="-35" y="-41" rx="0" ry="0" transform="matrix(0,-1,-1,0,0,0)"/>
 <path fill="#fff" style="opacity:0.1" d="m6 6c-1.108 0-2 0.892-2 2v1c0-1.108 0.892-2 2-2h36c1.108 0 2 0.892 2 2v-1c0-1.108-0.892-2-2-2h-36z"/>
 <path opacity=".2" d="m12 40v1c0 1.108 0.892 2 2 2h20c1.108 0 2-0.892 2-2v-1c0 1.108-0.892 2-2 2h-20c-1.108 0-2-0.892-2-2z"/>
 <path opacity=".2" d="m4 36v1c0 1.108 0.892 2 2 2h36c1.108 0 2-0.892 2-2v-1c0 1.108-0.892 2-2 2h-36c-1.108 0-2-0.892-2-2z"/>
 <path style="opacity:0.2" d="m 14.997,16 13,0 c 1,0 1,1 1,1 l 0,12 c 0,1 -1,1 -1,1 L 15,30 c 0,0 -1,0 -1,-1 l 0,-12 c 0,0 0,-1 1,-1 z M 35,18 35,28 28.994,23 Z"/>
 <path style="fill:#ffffff" d="m 14.997,15 13,0 c 1,0 1,1 1,1 l 0,12 c 0,1 -1,1 -1,1 L 15,29 c 0,0 -1,0 -1,-1 l 0,-12 c 0,0 0,-1 1,-1 z M 35,17 35,27 28.994,22 Z"/>
</svg>
